X: 978
T: The orange rogue
C: anon.
O: Ireland
B: Francis O'Neill: "The Dance Music of Ireland" (1907) no. 978
R: Long dance, set dance
Z: Transcribed by Frank Nordberg - http://www.musicaviva.com
F: http://www.musicaviva.com/abc/tunes/ireland/oneill-1001/oneill-1001-097
8.abc
m: Tn3 = n(3n/o/n/ m/n/
M: 6/8
L: 1/8
K: Em
d|(e/f/g)(e d)B(A|G)EF G2A|BAB def|(g2b) agf|(e/f/g)(e d)B(A|G)EF G2(A|B)
AB dcd|e3e2:|
|:f|(g2e) (a2f)|g2B (Bc)d|g2(e a)gf|Tg3 (B2d)|(g2e) (a2f)|g2(e f)ed|(BA)(
B d)ef|g2(b a)gf|
(e/f/g)(e d)B(A|G)EF G2A|(BA)(B d)ef|g2(b a)gf|(e/f/g)(e d)BA|GEF G2A|(BA
)(B d)c(d|e3)e2:|
W:
W:
W: From Musica Viva - http://www.musicaviva.com
W: the Internet center for free sheet music downloads.


